components/Common/Svg/svgs/userFlow.svg

<svg
  width="90"
  height="90"
  viewBox="0 0 90 90"
  fill="none"
  xmlns="http://www.w3.org/2000/svg"
>
  <circle
    opacity="0.5"
    cx="45"
    cy="45"
    r="45"
    fill="#FFE603"
  ></circle>
  <path
    d="M39.4102 61.0455V54.6819C39.4102 53.979 38.8403 53.4092 38.1374 53.4092H22.8647C22.1618 53.4092 21.592 53.979 21.592 54.6819V61.0455C21.592 61.7485 22.1618 62.3183 22.8647 62.3183H38.1374C38.8403 62.3183 39.4102 61.7485 39.4102 61.0455Z"
    stroke="#161616"
    stroke-width="2"
    stroke-linecap="round"
    stroke-linejoin="round"
  ></path>
  <path
    d="M67.4102 61.0455V54.6819C67.4102 53.979 66.8403 53.4092 66.1374 53.4092H50.8647C50.1618 53.4092 49.592 53.979 49.592 54.6819V61.0455C49.592 61.7485 50.1618 62.3183 50.8647 62.3183H66.1374C66.8403 62.3183 67.4102 61.7485 67.4102 61.0455Z"
    stroke="#161616"
    stroke-width="2"
    stroke-linecap="round"
    stroke-linejoin="round"
  ></path>
  <path
    d="M44.5039 33.6819V40.0455"
    stroke="#161616"
    stroke-width="2"
    stroke-linecap="round"
    stroke-linejoin="round"
  ></path>
  <path
    d="M30.5039 52.5184V49.973C30.5039 48.9603 30.9062 47.9892 31.6222 47.2731C32.3383 46.5571 33.3094 46.1548 34.3221 46.1548H54.6857C55.6984 46.1548 56.6695 46.5571 57.3856 47.2731C58.1016 47.9892 58.5039 48.9603 58.5039 49.973V52.5184"
    stroke="#161616"
    stroke-width="2"
    stroke-linecap="round"
    stroke-linejoin="round"
  ></path>
  <circle
    cx="44.5018"
    cy="29.2274"
    r="4.81818"
    fill="#FFF281"
    stroke="#161616"
    stroke-width="2"
  ></circle>
  <path
    d="M43.7128 40.6959L39.0806 45.3281C38.6542 45.7544 38.6542 46.4457 39.0806 46.8721L43.7128 51.5043C44.1392 51.9307 44.8305 51.9307 45.2569 51.5043L49.8891 46.8721C50.3155 46.4457 50.3155 45.7544 49.8891 45.3281L45.2569 40.6959C44.8305 40.2695 44.1392 40.2695 43.7128 40.6959Z"
    fill="#FFF281"
    stroke="#161616"
    stroke-width="2"
    stroke-linecap="round"
    stroke-linejoin="round"
  ></path>
</svg>

<svg width="90" height="90" viewBox="0 0 90 90" fill="none" xmlns="http://www.w3.org/2000/svg"><circle opacity=".5" cx="45" cy="45" r="45" fill="#FFE603"/><path d="M39.41 61.045v-6.363c0-.703-.57-1.273-1.273-1.273H22.865c-.703 0-1.273.57-1.273 1.273v6.363c0 .703.57 1.273 1.273 1.273h15.272c.703 0 1.273-.57 1.273-1.273ZM67.41 61.045v-6.363c0-.703-.57-1.273-1.273-1.273H50.865c-.703 0-1.273.57-1.273 1.273v6.363c0 .703.57 1.273 1.273 1.273h15.272c.703 0 1.273-.57 1.273-1.273ZM44.504 33.682v6.363M30.504 52.518v-2.545a3.818 3.818 0 0 1 3.818-3.818h20.364a3.818 3.818 0 0 1 3.818 3.818v2.545" stroke="#161616" stroke-width="2" stroke-linecap="round" stroke-linejoin="round"/><circle cx="44.502" cy="29.227" r="4.818" fill="#FFF281" stroke="#161616" stroke-width="2"/><path d="m43.713 40.696-4.632 4.632a1.092 1.092 0 0 0 0 1.544l4.632 4.632a1.092 1.092 0 0 0 1.544 0l4.632-4.632a1.092 1.092 0 0 0 0-1.544l-4.632-4.632a1.092 1.092 0 0 0-1.544 0Z" fill="#FFF281" stroke="#161616" stroke-width="2" stroke-linecap="round" stroke-linejoin="round"/></svg>
